; generated by PrusaSlicer 2.3.0-alpha1+win64 on 2020-12-05 at 10:05:58 UTC


;
;

;
;
; 

; external perimeters extrusion width = 0.45mm
; perimeters extrusion width = 0.45mm
; infill extrusion width = 0.45mm
; solid infill extrusion width = 0.45mm
; top infill extrusion width = 0.40mm
; support material extrusion width = 0.35mm
; first layer extrusion width = 0.42mm

M73 P0 R102
M201 X1250 Y1250 Z400 E5000 ; sets maximum accelerations, mm/sec^2
M203 X180 Y180 Z12 E80 ; sets maximum feedrates, mm/sec
M204 P1250 R1250 T1250 ; sets acceleration (P, T) and retract acceleration (R), mm/sec^2
M205 X8.00 Y8.00 Z2.00 E10.00 ; sets the jerk limits, mm/sec
M205 S0 T0 ; sets the minimum extruding and travel feed rate, mm/sec
M107
;TYPE:Custom
G90 ; use absolute coordinates
M83 ; extruder relative mode
M104 S170 ; set extruder temp for bed leveling
M140 S60 ; set bed temp
M109 R170 ; wait for bed leveling temp
M190 S60 ; wait for bed temp
G28 ; home all without mesh bed level
G29 ; mesh bed leveling 
M104 S215 ; set extruder temp
G92 E0.0
G1 Y-2.0 X179 F2400
G1 Z3 F720
M109 S215 ; wait for extruder temp

; intro line
G1 X170 F1000
G1 Z0.2 F720
G1 X110.0 E8.0 F900
G1 X40.0 E10.0 F700
G92 E0.0

M221 S95 ; set flow
G21 ; set units to millimeters
G90 ; use absolute coordinates
M83 ; use relative distances for extrusion
M900 K0.2 ; Filament gcode
;Z:0.2
;HEIGHT:0.2
;BEFORE_LAYER_CHANGE
G92 E0.0
;0.2


G1 Z0.200 F9000.000
;AFTER_LAYER_CHANGE
;0.2
G1 E-3.20000 F4200.00000
G1 Z0.400 F9000.000
G1 X71.527 Y82.515
G1 Z0.200
G1 E3.20000 F2400.00000
M204 S800
;TYPE:Skirt
G1 F1200.000
M73 P0 R101
G1 X72.399 Y81.964 E0.03233
G1 X73.412 Y81.772 E0.03233
G1 X106.622 Y81.942 E1.04129
G1 X107.644 Y82.151 E0.03271
G1 X108.280 Y82.520 E0.02307
G1 X108.799 Y83.048 E0.02320
G1 X109.156 Y83.691 E0.02307
G1 X109.331 Y84.410 E0.02320
G1 X109.345 Y95.519 E0.34830
G1 X109.137 Y96.525 E0.03221
G1 X108.738 Y97.200 E0.02460
G1 X108.164 Y97.735 E0.02460
G1 X107.463 Y98.087 E0.02460
G1 X106.691 Y98.226 E0.02460
G1 X73.378 Y98.058 E1.04451
G1 X72.356 Y97.849 E0.03271
G1 X71.729 Y97.487 E0.02269
G1 X71.219 Y96.975 E0.02269
G1 X70.859 Y96.347 E0.02269
G1 X70.676 Y95.647 E0.02269
G1 X70.660 Y84.346 E0.35433
G1 X70.919 Y83.348 E0.03233
G1 X71.492 Y82.563 E0.03045
M204 S1250
G1 X71.779 Y82.795 F9000.000
M204 S800
G1 F1200.000
G1 X72.533 Y82.316 E0.02802
G1 X73.411 Y82.149 E0.02802
G1 X106.615 Y82.319 E1.04110
G1 X107.477 Y82.490 E0.02755
G1 X108.038 Y82.809 E0.02024
G1 X108.494 Y83.271 E0.02036
G1 X108.809 Y83.839 E0.02036
G1 X108.958 Y84.471 E0.02036
G1 X108.968 Y95.504 E0.34594
G1 X108.798 Y96.359 E0.02731
G1 X108.453 Y96.953 E0.02154
G1 X107.955 Y97.421 E0.02142
G1 X107.341 Y97.730 E0.02154
G1 X106.665 Y97.850 E0.02154
G1 X73.385 Y97.681 E1.04348
G1 X72.523 Y97.510 E0.02755
G1 X71.968 Y97.195 E0.02000
G1 X71.517 Y96.744 E0.02000
G1 X71.202 Y96.189 E0.02000
G1 X71.046 Y95.571 E0.02000
G1 X71.035 Y84.389 E0.35059
G1 X71.255 Y83.519 E0.02813
G1 X71.744 Y82.844 E0.02614
M204 S1250
G1 E-2.24000 F4200.00000
G1 F7200.000
G1 X72.533 Y82.316 E-0.52624
G1 X73.217 Y82.186 E-0.38576
G1 E-0.04800 F4200.00000
G1 Z0.400 F9000.000
G1 X73.409 Y84.526
G1 Z0.200
G1 E3.20000 F2400.00000
M204 S800
;TYPE:Support material
G1 F1200.000
G1 X73.409 Y95.304 E0.33794
G1 X74.163 Y95.304 E0.02365
G1 X74.163 Y84.696 E0.33262
G1 X74.917 Y84.696 E0.02365
G1 X74.917 Y95.304 E0.33262
M73 P1 R101
G1 X75.671 Y95.304 E0.02365
G1 X75.671 Y84.696 E0.33262
G1 X76.425 Y84.696 E0.02365
G1 X76.425 Y95.304 E0.33262
G1 X77.179 Y95.304 E0.02365
G1 X77.179 Y84.696 E0.33262
G1 X77.933 Y84.696 E0.02365
G1 X77.933 Y95.304 E0.33262
G1 X78.688 Y95.304 E0.02365
G1 X78.688 Y84.696 E0.33262
G1 X79.442 Y84.696 E0.02365
G1 X79.442 Y95.304 E0.33262
G1 X80.196 Y95.304 E0.02365
G1 X80.196 Y84.696 E0.33262
G1 X80.950 Y84.696 E0.02365
G1 X80.950 Y95.304 E0.33262
G1 X81.704 Y95.304 E0.02365
G1 X81.704 Y84.696 E0.33262
G1 X82.458 Y84.696 E0.02365
G1 X82.458 Y95.304 E0.33262
G1 X83.213 Y95.304 E0.02365
G1 X83.213 Y84.696 E0.33262
G1 X83.967 Y84.696 E0.02365
G1 X83.967 Y95.304 E0.33262
G1 X84.721 Y95.304 E0.02365
G1 X84.721 Y84.696 E0.33262
G1 X85.475 Y84.696 E0.02365
G1 X85.475 Y87.319 E0.08224
G1 X86.229 Y87.319 E0.02365
G1 X86.229 Y84.696 E0.08224
G1 X86.983 Y84.696 E0.02365
G1 X86.983 Y87.319 E0.08223
G1 X87.738 Y87.319 E0.02365
G1 X87.738 Y84.696 E0.08223
G1 X88.492 Y84.696 E0.02365
G1 X88.492 Y88.046 E0.10505
G1 X88.549 Y88.047 E0.00180
G1 X89.246 Y88.045 E0.02184
G1 X89.246 Y84.696 E0.10502
G1 X90.000 Y84.696 E0.02365
G1 X90.000 Y88.045 E0.10502
G1 X90.754 Y88.045 E0.02365
G1 X90.754 Y84.696 E0.10502
G1 X91.508 Y84.696 E0.02365
G1 X91.508 Y88.046 E0.10504
G1 X91.844 Y88.047 E0.01051
G1 X91.976 Y88.047 E0.00414
G1 X91.976 Y87.319 E0.02282
G1 X92.262 Y87.319 E0.00900
G1 X92.262 Y84.696 E0.08224
G1 X93.017 Y84.696 E0.02365
G1 X93.017 Y87.319 E0.08224
G1 X93.771 Y87.319 E0.02365
G1 X93.771 Y84.696 E0.08223
G1 X94.525 Y84.696 E0.02365
G1 X94.525 Y87.488 E0.08755
M204 S1250
G1 X94.228 Y88.401 F9000.000
M204 S800
;TYPE:Support material interface
G1 F1200.000
G1 X94.228 Y87.671 E0.01863
G1 X93.700 Y87.671 E0.01350
G1 X93.700 Y88.126 E0.01161
G1 X93.666 Y88.134 E0.00089
G1 X93.343 Y88.127 E0.00824
G1 X93.284 Y88.068 E0.00212
G1 X93.171 Y88.068 E0.00289
G1 X93.171 Y87.671 E0.01014
G1 X92.643 Y87.671 E0.01350
G1 X92.643 Y88.215 E0.01388
M204 S1250
G1 E-2.24000 F4200.00000
G1 F7200.000
G1 X92.643 Y87.671 E-0.30122
G1 X93.171 Y87.671 E-0.29290
G1 X93.171 Y88.068 E-0.22000
G1 X93.284 Y88.068 E-0.06271
G1 X93.329 Y88.113 E-0.03518
G1 E-0.04800 F4200.00000
G1 Z0.400 F9000.000
G1 X93.771 Y91.505
G1 Z0.200
G1 E3.20000 F2400.00000
M204 S800
;TYPE:Support material
G1 F1200.000
G1 X93.771 Y88.737 E0.08679
G1 X93.493 Y88.479 E0.01188
G1 X93.495 Y88.775 E0.00930
G1 X93.139 Y88.421 E0.01572
G1 X93.017 Y88.420 E0.00385
G1 X93.017 Y91.752 E0.10447
M204 S1250
G1 X92.643 Y92.476 F9000.000
M204 S800
;TYPE:Support material interface
G1 F1200.000
G1 X92.643 Y91.935 E0.01382
G1 X93.171 Y91.935 E0.01350
G1 X93.171 Y92.329 E0.01004
G1 X93.700 Y92.329 E0.01350
G1 X93.700 Y91.878 E0.01151
G1 X94.164 Y91.878 E0.01186
G1 X94.228 Y91.813 E0.00232
G1 X94.228 Y92.476 E0.01693
M204 S1250
G1 E-2.24000 F4200.00000
G1 F7200.000
G1 X94.228 Y91.813 E-0.36739
G1 X94.164 Y91.878 E-0.05027
G1 X93.700 Y91.878 E-0.25737
G1 X93.700 Y92.305 E-0.23697
G1 E-0.04800 F4200.00000
G1 Z0.400 F9000.000
G1 X87.357 Y88.215
G1 Z0.200
G1 E3.20000 F2400.00000
M204 S800
G1 F1200.000
G1 X87.357 Y87.671 E0.01388
G1 X86.829 Y87.671 E0.01350
G1 X86.829 Y88.072 E0.01022
G1 X86.754 Y88.074 E0.00190
G1 X86.703 Y88.127 E0.00189
G1 X86.311 Y88.135 E0.01002
G1 X86.300 Y87.671 E0.01183
G1 X85.772 Y87.671 E0.01350
G1 X85.772 Y88.428 E0.01933
M204 S1250
G1 X85.475 Y88.339 F9000.000
M204 S800
;TYPE:Support material
G1 F1200.000
G1 X85.475 Y91.430 E0.09693
G1 X85.501 Y91.456 E0.00113
G1 X85.501 Y91.014 E0.01386
G1 X85.958 Y91.471 E0.02026
G1 X85.958 Y91.015 E0.01430
G1 X86.229 Y91.286 E0.01204
G1 X86.229 Y88.714 E0.08063
G1 X86.466 Y88.479 E0.01046
G1 X86.558 Y88.479 E0.00290
G1 X86.556 Y88.787 E0.00965
G1 X86.908 Y88.422 E0.01589
G1 X86.983 Y88.420 E0.00235
G1 X86.983 Y91.752 E0.10447
M204 S1250
G1 X87.357 Y92.476 F9000.000
M204 S800
;TYPE:Support material interface
G1 F1200.000
G1 X87.357 Y91.935 E0.01382
G1 X86.829 Y91.935 E0.01350
G1 X86.829 Y92.329 E0.01004
G1 X86.300 Y92.329 E0.01350
G1 X86.300 Y91.878 E0.01151
G1 X85.853 Y91.866 E0.01141
G1 X85.772 Y91.878 E0.00211
G1 X85.772 Y92.476 E0.01529
M204 S1250
G1 X85.475 Y92.512 F9000.000
M204 S800
;TYPE:Support material
G1 F1200.000
G1 X85.475 Y95.304 E0.08755
G1 X86.229 Y95.304 E0.02365
G1 X86.229 Y92.681 E0.08223
G1 X86.983 Y92.681 E0.02365
G1 X86.983 Y95.304 E0.08224
G1 X87.738 Y95.304 E0.02365
G1 X87.738 Y92.681 E0.08224
G1 X88.024 Y92.681 E0.00899
G1 X88.024 Y91.960 E0.02263
G1 X88.492 Y91.960 E0.01465
G1 X88.492 Y95.304 E0.10487
G1 X89.246 Y95.304 E0.02365
G1 X89.246 Y91.960 E0.10487
G1 X90.000 Y91.960 E0.02365
G1 X90.000 Y95.304 E0.10487
G1 X90.754 Y95.304 E0.02365
G1 X90.754 Y91.960 E0.10487
G1 X91.508 Y91.960 E0.02365
G1 X91.508 Y95.304 E0.10487
G1 X92.262 Y95.304 E0.02365
G1 X92.262 Y92.681 E0.08223
G1 X93.017 Y92.681 E0.02365
G1 X93.017 Y95.304 E0.08223
G1 X93.771 Y95.304 E0.02365
G1 X93.771 Y92.681 E0.08224
G1 X94.525 Y92.681 E0.02365
G1 X94.525 Y95.304 E0.08224
G1 X95.279 Y95.304 E0.02365
G1 X95.279 Y84.696 E0.33262
G1 X96.033 Y84.696 E0.02365
G1 X96.033 Y95.304 E0.33262
G1 X96.787 Y95.304 E0.02365
G1 X96.787 Y84.696 E0.33262
G1 X97.542 Y84.696 E0.02365
G1 X97.542 Y95.304 E0.33262
G1 X98.296 Y95.304 E0.02365
G1 X98.296 Y84.696 E0.33262
G1 X99.050 Y84.696 E0.02365
G1 X99.050 Y95.304 E0.33262
G1 X99.804 Y95.304 E0.02365
G1 X99.804 Y84.696 E0.33262
G1 X100.558 Y84.696 E0.02365
G1 X100.558 Y95.304 E0.33262
G1 X101.312 Y95.304 E0.02365
G1 X101.312 Y84.696 E0.33262
G1 X102.067 Y84.696 E0.02365
G1 X102.067 Y95.304 E0.33262
G1 X102.821 Y95.304 E0.02365
G1 X102.821 Y84.696 E0.33262
G1 X103.575 Y84.696 E0.02365
G1 X103.575 Y95.304 E0.33262
G1 X104.329 Y95.304 E0.02365
G1 X104.329 Y84.696 E0.33262
G1 X105.083 Y84.696 E0.02365
G1 X105.083 Y95.304 E0.33262
G1 X105.837 Y95.304 E0.02365
G1 X105.837 Y84.696 E0.33262
G1 X106.591 Y84.696 E0.02365
G1 X106.591 Y95.474 E0.33794
M204 S1250
G1 E-2.24000 F4200.00000
G1 F7200.000
G1 X106.591 Y93.828 E-0.91200
G1 E-0.04800 F4200.00000
G1 Z0.400 F9000.000
G1 X90.827 Y90.337
G1 Z0.200
G1 E3.20000 F2400.00000
M204 S800
;TYPE:Perimeter
G1 F1200.000
G1 X89.258 Y90.337 E0.04921
G1 X89.259 Y89.668 E0.02096
G1 X90.828 Y89.668 E0.04920
G1 X90.828 Y90.277 E0.01908
M204 S1250
G1 X91.204 Y90.714 F9000.000
M204 S800
G1 F1200.000
G1 X88.881 Y90.714 E0.07286
G1 X88.882 Y89.291 E0.04461
G1 X91.205 Y89.291 E0.07284
G1 X91.204 Y90.654 E0.04273
M204 S1250
G1 X91.581 Y91.091 F9000.000
M204 S800
;TYPE:External perimeter
G1 F1200.000
G1 X88.503 Y91.091 E0.09650
G1 X88.505 Y88.914 E0.06826
G1 X91.582 Y88.914 E0.09649
G1 X91.581 Y91.031 E0.06637
M204 S1250
G1 X91.190 Y91.009 F9000.000
G1 E-2.24000 F4200.00000
G1 F7200.000
G1 X89.936 Y91.063 E-0.91200
G1 E-0.04800 F4200.00000
G1 Z0.400 F9000.000
G1 X89.447 Y90.003
G1 Z0.200
G1 E3.20000 F2400.00000
M204 S800
;TYPE:Gap fill
G1 F1200.000
G1 X90.639 Y90.003 E0.02890
M204 S1250
M106 S255
;Z:0.3
;HEIGHT:0.1
;BEFORE_LAYER_CHANGE
G92 E0.0
;0.3


G1 Z0.300 F9000.000
;AFTER_LAYER_CHANGE
;0.3
G1 E-3.20000 F4200.00000
G1 Z0.500 F9000.000
G1 X72.399 Y81.964
G1 Z0.300
G1 E3.20000 F2400.00000
;TYPE:Skirt
G1 F912
G1 X73.412 Y81.772 E0.01709
G1 X106.622 Y81.942 E0.55028
G1 X107.644 Y82.151 E0.01729
G1 X108.280 Y82.520 E0.01219
G1 X108.799 Y83.048 E0.01226
G1 X109.156 Y83.691 E0.01219
G1 X109.331 Y84.410 E0.01226
G1 X109.345 Y95.519 E0.18406
G1 X109.137 Y96.525 E0.01702
G1 X108.738 Y97.200 E0.01300
G1 X108.164 Y97.735 E0.01300
G1 X107.463 Y98.087 E0.01300
G1 X106.691 Y98.226 E0.01300
G1 X73.378 Y98.058 E0.55198
G1 X72.356 Y97.849 E0.01729
G1 X71.729 Y97.487 E0.01199
G1 X71.219 Y96.975 E0.01199
G1 X70.859 Y96.347 E0.01199
G1 X70.676 Y95.647 E0.01199
G1 X70.660 Y84.346 E0.18725
G1 X70.919 Y83.348 E0.01709
G1 X71.527 Y82.515 E0.01709
G1 X72.348 Y81.996 E0.01609
G1 X72.533 Y82.316 F9000.000
G1 F912
G1 X73.411 Y82.149 E0.01481
G1 X106.615 Y82.319 E0.55017
G1 X107.477 Y82.490 E0.01456
G1 X108.038 Y82.809 E0.01070
G1 X108.494 Y83.271 E0.01076
G1 X108.809 Y83.839 E0.01076
G1 X108.958 Y84.471 E0.01076
G1 X108.968 Y95.504 E0.18281
G1 X108.798 Y96.359 E0.01443
G1 X108.453 Y96.953 E0.01138
G1 X107.955 Y97.421 E0.01132
G1 X107.341 Y97.730 E0.01138
G1 X106.665 Y97.850 E0.01138
G1 X73.385 Y97.681 E0.55144
G1 X72.523 Y97.510 E0.01456
G1 X71.968 Y97.195 E0.01057
G1 X71.517 Y96.744 E0.01057
G1 X71.202 Y96.189 E0.01057
G1 X71.046 Y95.571 E0.01057
G1 X71.035 Y84.389 E0.18527
G1 X71.255 Y83.519 E0.01487
G1 X71.779 Y82.795 E0.01481
G1 X72.483 Y82.348 E0.01381
G1 E-2.24000 F4200.00000
G1 F7200.000
G1 X73.411 Y82.149 E-0.52624
G1 X74.107 Y82.153 E-0.38576
G1 E-0.04800 F4200.00000
G1 Z0.500 F9000.000
G1 X85.772 Y88.428
G1 Z0.300
G1 E3.20000 F2400.00000
;TYPE:Support material interface
G1 F912
G1 X85.772 Y87.671 E0.01034
G1 X86.300 Y87.671 E0.00722
G1 X86.300 Y88.067 E0.00540
G1 X86.721 Y88.073 E0.00575
G1 X86.829 Y88.072 E0.00147
G1 X86.829 Y87.671 E0.00547
G1 X87.357 Y87.671 E0.00722
G1 X87.357 Y88.215 E0.00742
G1 E-2.24000 F4200.00000
G1 F7200.000
G1 X87.357 Y87.671 E-0.30122
G1 X86.829 Y87.671 E-0.29290
G1 X86.829 Y88.072 E-0.22181
G1 X86.721 Y88.073 E-0.05952
G1 X86.655 Y88.072 E-0.03656
G1 E-0.04800 F4200.00000
G1 Z0.500 F9000.000
G1 X87.357 Y92.476
G1 Z0.300
G1 E3.20000 F2400.00000
G1 F912
G1 X87.357 Y91.935 E0.00739
G1 X86.829 Y91.935 E0.00722
G1 X86.829 Y92.329 E0.00537
G1 X86.300 Y92.329 E0.00722
G1 X86.300 Y91.935 E0.00537
G1 X86.167 Y91.935 E0.00182
G1 X86.109 Y91.878 E0.00111
G1 X85.853 Y91.866 E0.00350
G1 X85.772 Y91.878 E0.00113
G1 X85.772 Y92.476 E0.00818
G1 E-2.24000 F4200.00000
G1 F7200.000
G1 X85.772 Y91.878 E-0.33183
G1 X85.853 Y91.866 E-0.04581
G1 X86.109 Y91.878 E-0.14181
G1 X86.167 Y91.935 E-0.04523
G1 X86.300 Y91.935 E-0.07392
G1 X86.300 Y92.329 E-0.21794
G1 X86.400 Y92.329 E-0.05546
G1 E-0.04800 F4200.00000
G1 Z0.500 F9000.000
G1 X92.643 Y92.476
G1 Z0.300
G1 E3.20000 F2400.00000
G1 F912
G1 X92.643 Y91.935 E0.00739
G1 X93.171 Y91.935 E0.00722
G1 X93.171 Y92.329 E0.00537
G1 X93.700 Y92.329 E0.00722
G1 X93.700 Y91.935 E0.00537
G1 X93.814 Y91.935 E0.00156
G1 X93.871 Y91.878 E0.00111
G1 X94.164 Y91.878 E0.00401
G1 X94.228 Y91.813 E0.00124
G1 X94.228 Y92.476 E0.00906
G1 E-2.24000 F4200.00000
G1 F7200.000
G1 X94.228 Y91.813 E-0.36739
G1 X94.164 Y91.878 E-0.05027
G1 X93.871 Y91.878 E-0.16253
G1 X93.814 Y91.935 E-0.04504
G1 X93.700 Y91.935 E-0.06310
G1 X93.700 Y92.329 E-0.21794
G1 X93.689 Y92.329 E-0.00572
G1 E-0.04800 F4200.00000
G1 Z0.500 F9000.000
G1 X94.228 Y88.401
G1 Z0.300
G1 E3.20000 F2400.00000
G1 F912
G1 X94.228 Y87.671 E0.00996
G1 X93.700 Y87.671 E0.00722
G1 X93.700 Y88.072 E0.00547
G1 X93.369 Y88.073 E0.00451
G1 X93.171 Y88.068 E0.00271
G1 X93.171 Y87.671 E0.00542
G1 X92.643 Y87.671 E0.00722
G1 X92.643 Y88.215 E0.00742
G1 E-2.24000 F4200.00000
G1 F7200.000
G1 X92.643 Y87.671 E-0.30122
G1 X93.171 Y87.671 E-0.29290
G1 X93.171 Y88.068 E-0.22000
G1 X93.348 Y88.072 E-0.09788
G1 E-0.04800 F4200.00000
G1 Z0.500 F9000.000
G1 X92.025 Y89.585
G1 Z0.300
G1 E3.20000 F2400.00000
M204 S800
;TYPE:Perimeter
M73 P1 R100
G1 F912
G1 X92.026 Y90.419 E0.01486
G1 X88.028 Y90.419 E0.07122
G1 X88.027 Y89.584 E0.01488
G1 X91.965 Y89.585 E0.07016
M204 S1250
G1 X91.965 Y89.156 F9000.000
M204 S800
G1 F912
G1 X92.193 Y89.156 E0.00405
;TYPE:Overhang perimeter
;HEIGHT:0.334664
G1 F1500.000
G1 X92.453 Y89.156 E0.00953
G1 X92.455 Y90.847 E0.06185
G1 X92.193 Y90.847 E0.00959
;TYPE:Perimeter
;HEIGHT:0.1
G1 F912
G1 X87.891 Y90.847 E0.07664
;TYPE:Overhang perimeter
;HEIGHT:0.334664
G1 F1500.000
G1 X87.600 Y90.847 E0.01062
G1 X87.598 Y89.155 E0.06189
G1 X87.901 Y89.155 E0.01107
;TYPE:Perimeter
;HEIGHT:0.1
G1 F912
G1 X91.905 Y89.156 E0.07134
M204 S1250
G1 X91.905 Y88.728 F9000.000
M204 S800
;TYPE:External perimeter
G1 F912
G1 X92.193 Y88.728 E0.00512
;TYPE:Overhang perimeter
;HEIGHT:0.334664
G1 F1500.000
G1 X92.881 Y88.728 E0.02518
G1 X92.884 Y91.276 E0.09319
G1 X92.191 Y91.276 E0.02534
;TYPE:External perimeter
;HEIGHT:0.1
G1 F912
G1 X87.893 Y91.276 E0.07657
;TYPE:Overhang perimeter
;HEIGHT:0.334664
G1 F1500.000
G1 X87.173 Y91.276 E0.02635
G1 X87.169 Y88.727 E0.09322
G1 X87.896 Y88.726 E0.02658
;TYPE:External perimeter
;HEIGHT:0.1
G1 F912
G1 X91.845 Y88.728 E0.07037
M204 S1250
G1 E-2.24000 F4200.00000
G1 F7200.000
G1 X92.193 Y88.728 E-0.19248
G1 E-0.76752 F4200.00000
G1 Z0.500 F9000.000
G1 X88.242 Y90.001
G1 Z0.300
G1 E3.20000 F2400.00000
;TYPE:Gap fill
G1 F912
G1 X91.811 Y90.002 E0.06035
;Z:0.4
;HEIGHT:0.1
;BEFORE_LAYER_CHANGE
G92 E0.0
;0.4


G1 Z0.400 F9000.000
;AFTER_LAYER_CHANGE
;0.4
G1 E-3.20000 F4200.00000
G1 Z0.600 F9000.000
G1 X72.399 Y81.964
G1 Z0.400
G1 E3.20000 F2400.00000
;TYPE:Skirt
G1 F1313
G1 X73.412 Y81.772 E0.01709
G1 X106.622 Y81.942 E0.55028
G1 X107.644 Y82.151 E0.01729
G1 X108.280 Y82.520 E0.01219
